assets/img/braze_icons/notification-text.svg

<svg fill="none" height="24" viewBox="0 0 24 24" width="24" xmlns="http://www.w3.org/2000/svg"><g fill="#801ed7"><path d="m21.1213 2.87868c1.1716 1.17157 1.1716 3.07107 0 4.24264s-3.071 1.17157-4.2426 0-1.1716-3.07107 0-4.24264 3.071-1.17157 4.2426 0z"/><path clip-rule="evenodd" d="m21 10.8055c0-.4088 0-.6132-.0664-.7288-.0666-.11616-.1343-.17345-.2599-.21997-.125-.04632-.364-.00621-.8419.074-1.5405.25847-3.1787-.20654-4.3673-1.3952-1.1887-1.18865-1.6537-2.82688-1.3952-4.36733.0802-.47795.1203-.71692.074-.84192-.0465-.12555-.1038-.19326-.22-.25991-.1156-.06637-.32-.06637-.7288-.06637h-5.4358c-.80495-.00001-1.46934-.00002-2.01052.04419-.5621.04593-1.0788.14449-1.56414.39179-.75265.38349-1.36457.99541-1.74806 1.74806-.2473.48533-.34586 1.00204-.39178 1.56414-.04422.54118-.04421 1.20553-.0442 2.01049v7.48263c-.00001.805-.00002 1.4693.0442 2.0105.04592.5621.14448 1.0788.39178 1.5642.38349.7526.99541 1.3645 1.74806 1.748.48534.2473 1.00204.3459 1.56414.3918.54119.0442 1.20554.0442 2.0105.0442h7.48262c.805 0 1.4693 0 2.0105-.0442.5621-.0459 1.0788-.1445 1.5642-.3918.7526-.3835 1.3645-.9954 1.748-1.748.2473-.4854.3459-1.0021.3918-1.5642.0442-.5412.0442-1.2055.0442-2.0105zm-15 2.1945c0-.5523.44772-1 1-1h8c.5523 0 1 .4477 1 1s-.4477 1-1 1h-8c-.55228 0-1-.4477-1-1zm0 4c0-.5523.44772-1 1-1h6c.5523 0 1 .4477 1 1s-.4477 1-1 1h-6c-.55228 0-1-.4477-1-1z" fill-rule="evenodd"/></g></svg>

<svg width="24" height="24" viewBox="0 0 24 24" fill="none" xmlns="http://www.w3.org/2000/svg">
<path d="M21.1213 2.87868C22.2929 4.05025 22.2929 5.94975 21.1213 7.12132C19.9497 8.29289 18.0503 8.29289 16.8787 7.12132C15.7071 5.94975 15.7071 4.05025 16.8787 2.87868C18.0503 1.70711 19.9497 1.70711 21.1213 2.87868Z" fill="#801ED7"/>
<path fill-rule="evenodd" clip-rule="evenodd" d="M21 10.8055C21 10.3967 21 10.1923 20.9336 10.0767C20.867 9.96054 20.7993 9.90325 20.6737 9.85673C20.5487 9.81041 20.3097 9.85052 19.8318 9.93073C18.2913 10.1892 16.6531 9.72419 15.4645 8.53553C14.2758 7.34688 13.8108 5.70865 14.0693 4.1682C14.1495 3.69025 14.1896 3.45128 14.1433 3.32628C14.0968 3.20073 14.0395 3.13302 13.9233 3.06637C13.8077 3 13.6033 3 13.1945 3H7.7587C6.95375 2.99999 6.28936 2.99998 5.74818 3.04419C5.18608 3.09012 4.66938 3.18868 4.18404 3.43598C3.43139 3.81947 2.81947 4.43139 2.43598 5.18404C2.18868 5.66937 2.09012 6.18608 2.0442 6.74818C1.99998 7.28936 1.99999 7.95371 2 8.75867V16.2413C1.99999 17.0463 1.99998 17.7106 2.0442 18.2518C2.09012 18.8139 2.18868 19.3306 2.43598 19.816C2.81947 20.5686 3.43139 21.1805 4.18404 21.564C4.66938 21.8113 5.18608 21.9099 5.74818 21.9558C6.28937 22 6.95372 22 7.75868 22H15.2413C16.0463 22 16.7106 22 17.2518 21.9558C17.8139 21.9099 18.3306 21.8113 18.816 21.564C19.5686 21.1805 20.1805 20.5686 20.564 19.816C20.8113 19.3306 20.9099 18.8139 20.9558 18.2518C21 17.7106 21 17.0463 21 16.2413V10.8055ZM6 13C6 12.4477 6.44772 12 7 12H15C15.5523 12 16 12.4477 16 13C16 13.5523 15.5523 14 15 14H7C6.44772 14 6 13.5523 6 13ZM6 17C6 16.4477 6.44772 16 7 16H13C13.5523 16 14 16.4477 14 17C14 17.5523 13.5523 18 13 18H7C6.44772 18 6 17.5523 6 17Z" fill="#801ED7"/>
</svg>
